svg/UnitedNations-Flags/flag-mw.svg

<?xml version="1.0" encoding="UTF-8" standalone="no"?>
<!-- Created with Inkscape (http://www.inkscape.org/) --><svg height="256" id="svg2394" inkscape:output_extension="org.inkscape.output.svg.inkscape" inkscape:version="0.46" sodipodi:docname="Flag_of_Malawi.svg" sodipodi:version="0.32" version="1.0" width="256" xmlns="http://www.w3.org/2000/svg" xmlns:cc="http://creativecommons.org/ns#" xmlns:dc="http://purl.org/dc/elements/1.1/" xmlns:inkscape="http://www.inkscape.org/namespaces/inkscape" xmlns:rdf="http://www.w3.org/1999/02/22-rdf-syntax-ns#" xmlns:sodipodi="http://sodipodi.sourceforge.net/DTD/sodipodi-0.dtd" xmlns:svg="http://www.w3.org/2000/svg">
  <metadata>
    <rdf:RDF xmlns:cc="http://web.resource.org/cc/" xmlns:dc="http://purl.org/dc/elements/1.1/" xmlns:rdf="http://www.w3.org/1999/02/22-rdf-syntax-ns#">
      <cc:Work rdf:about="">
        <dc:title></dc:title>
        <dc:description></dc:description>
        <dc:subject>
          <rdf:Bag>
            <rdf:li>unsorted</rdf:li>
          </rdf:Bag>
        </dc:subject>
        <dc:publisher>
          <cc:Agent rdf:about="http://www.openclipart.org/">
            <dc:title>Open Clip Art Library, Source: Wikimedia Commons, Source: Wikimedia Commons, Source: Wikimedia Commons, Source: Wikimedia Commons</dc:title>
          </cc:Agent>
        </dc:publisher>
        <dc:creator>
          <cc:Agent>
            <dc:title></dc:title>
          </cc:Agent>
        </dc:creator>
        <dc:rights>
          <cc:Agent>
            <dc:title></dc:title>
          </cc:Agent>
        </dc:rights>
        <dc:date></dc:date>
        <dc:format>image/svg+xml</dc:format>
        <dc:type rdf:resource="http://purl.org/dc/dcmitype/StillImage"/>
        <cc:license rdf:resource="http://en.wikipedia.org/wiki/Public_domain"/>
        <dc:language>en</dc:language>
      </cc:Work>
    </rdf:RDF>
  </metadata>
  <sodipodi:namedview bordercolor="#666666" borderopacity="1.0" gridtolerance="10.0" guidetolerance="10.0" id="base" inkscape:current-layer="svg2394" inkscape:cx="225" inkscape:cy="150" inkscape:pageopacity="0.0" inkscape:pageshadow="2" inkscape:window-height="795" inkscape:window-width="979" inkscape:window-x="29" inkscape:window-y="2" inkscape:zoom="1.2422222" objecttolerance="10.0" pagecolor="#ffffff" showgrid="false"/>
  <defs id="defs3">
    <inkscape:perspective id="perspective3072" inkscape:persp3d-origin="225 : 100 : 1" inkscape:vp_x="0 : 150 : 1" inkscape:vp_y="0 : 1000 : 0" inkscape:vp_z="450 : 150 : 1" sodipodi:type="inkscape:persp3d"/>
  </defs>
  <rect height="85.333496" id="rect2404" style="fill:#000000;fill-opacity:1;stroke:none;stroke-width:25;stroke-linecap:butt;stroke-linejoin:miter;stroke-miterlimit:4;stroke-opacity:1" width="256" x="3.5527137e-15" y="42.333"/>
  <rect height="85.333496" id="rect3648" style="fill:#339e35;fill-opacity:1;stroke:none;stroke-width:25;stroke-linecap:butt;stroke-linejoin:miter;stroke-miterlimit:4;stroke-opacity:1" width="256" x="3.5527137e-15" y="127.6665"/>
  <rect height="56.888996" id="rect3026" style="fill:#ce1126;fill-opacity:1;stroke:none;stroke-width:25;stroke-linecap:butt;stroke-linejoin:miter;stroke-miterlimit:4;stroke-opacity:1" width="256" x="3.5527137e-15" y="99.222008"/>
  <path d="M 128,70.493065 C 112.02338,70.493065 98.441569,80.703524 93.404444,94.955331 L 162.59556,94.955331 C 157.55843,80.703524 143.97662,70.493065 128,70.493065 z" id="path4270" style="fill:#ce1126;fill-opacity:1;stroke:none;stroke-width:25;stroke-linecap:butt;stroke-linejoin:miter;stroke-miterlimit:4;stroke-opacity:1"/>
  <path d="M 128,49.159685 C 126.76741,49.159685 126.29333,51.008578 126.29333,52.857472 C 126.29333,57.31378 126.83926,59.643484 128,66.226387 C 129.16074,59.643484 129.70667,57.31378 129.70667,52.857472 C 129.70667,51.008578 129.23259,49.159685 128,49.159685 z M 122.95111,49.373025 C 121.7232,49.480455 121.4033,51.371169 121.56444,53.213032 C 121.95284,57.652381 122.69661,59.929695 124.42667,66.386387 C 125.00925,59.727374 125.34839,57.35015 124.96,52.910812 C 124.79886,51.068948 124.17901,49.265595 122.95111,49.373025 z M 133.04889,49.373025 C 131.82099,49.265595 131.20114,51.068948 131.04,52.910812 C 130.65161,57.35015 130.99075,59.727364 131.57333,66.386387 C 133.3034,59.929695 134.04716,57.652381 134.43556,53.213032 C 134.5967,51.371169 134.27679,49.480455 133.04889,49.373025 z M 118.15111,50.030806 C 118.07858,50.029386 117.99587,50.035206 117.92,50.048576 C 116.70613,50.262617 116.56783,52.15667 116.88889,53.977474 C 117.66272,58.366082 118.60267,60.567276 120.88889,66.848608 C 120.88889,60.164155 121.02271,57.779411 120.24889,53.390813 C 119.9479,51.683799 119.23905,50.052106 118.15111,50.030806 z M 137.84889,50.030806 C 136.76096,50.052106 136.0521,51.683799 135.75111,53.390813 C 134.97728,57.779411 135.11111,60.164155 135.11111,66.848608 C 137.39732,60.567276 138.33729,58.366082 139.11111,53.977474 C 139.43216,52.15667 139.29387,50.262617 138.08,50.048576 C 138.00413,50.035206 137.92142,50.029386 137.84889,50.030806 z M 113.20889,51.097468 C 113.13651,51.102378 113.05219,51.113088 112.97778,51.133028 C 111.78718,51.452049 111.80592,53.364922 112.28444,55.150816 C 113.43782,59.455274 114.57948,61.572658 117.40444,67.630839 C 116.82185,60.971817 116.74449,58.566382 115.59111,54.261924 C 115.14249,52.587641 114.29454,51.023868 113.20889,51.097468 z M 142.79111,51.097468 C 141.70545,51.023868 140.85751,52.587641 140.40889,54.261924 C 139.25551,58.566382 139.17814,60.971817 138.59556,67.630839 C 141.42052,61.572658 142.56218,59.455274 143.71556,55.150816 C 144.19409,53.364922 144.21282,51.452049 143.02222,51.133028 C 142.94781,51.113088 142.86349,51.102378 142.79111,51.097468 z M 108.58667,52.590811 C 108.44511,52.584681 108.30478,52.609221 108.16,52.661921 C 107.00175,53.083492 107.18986,54.977866 107.82222,56.715259 C 109.34636,60.902817 110.64889,62.90859 113.99111,68.697501 C 112.83037,62.114599 112.54637,59.729474 111.02222,55.541927 C 110.46891,54.021704 109.57756,52.633651 108.58667,52.590811 z M 147.41333,52.590811 C 146.42244,52.633651 145.53109,54.021704 144.97778,55.541927 C 143.45364,59.729474 143.16963,62.114599 142.00889,68.697501 C 145.35111,62.90859 146.65363,60.902817 148.17778,56.715259 C 148.81013,54.977866 148.99826,53.083492 147.84,52.661921 C 147.69522,52.609221 147.55489,52.584681 147.41333,52.590811 z M 103.89333,54.493035 C 103.75178,54.499275 103.62408,54.534585 103.48444,54.599695 C 102.36733,55.120616 102.70307,56.995149 103.48444,58.670822 C 105.36776,62.7096 106.85041,64.590804 110.68444,70.066394 C 108.95438,63.609702 108.46109,61.269597 106.57778,57.23082 C 105.89408,55.764607 104.88419,54.449355 103.89333,54.493035 z M 152.10667,54.493035 C 151.11581,54.449355 150.10592,55.764607 149.42222,57.23082 C 147.5389,61.269597 147.04561,63.609702 145.31556,70.066394 C 149.1496,64.590804 150.63224,62.7096 152.51556,58.670822 C 153.29693,56.995149 153.63266,55.120616 152.51556,54.599695 C 152.37592,54.534585 152.24822,54.499275 152.10667,54.493035 z M 99.395556,56.786369 C 99.255086,56.804919 99.1201,56.851559 98.986667,56.928589 C 97.919209,57.54489 98.435556,59.380744 99.36,60.981937 C 101.58814,64.841204 103.22332,66.599137 107.52,71.719727 C 105.23378,65.438395 104.53926,63.134541 102.31111,59.275264 C 101.50222,57.874221 100.37883,56.656499 99.395556,56.786369 z M 156.39111,56.786369 C 155.46165,56.839249 154.44,57.974301 153.68889,59.275264 C 151.46073,63.134541 150.76622,65.438395 148.48,71.719727 C 152.77667,66.599137 154.41185,64.841204 156.64,60.981937 C 157.56445,59.380744 158.08079,57.54489 157.01333,56.928589 C 156.81318,56.813039 156.6056,56.774169 156.39111,56.786369 z M 95.324444,59.453044 C 95.109706,59.459584 94.909315,59.516034 94.72,59.648594 C 93.710319,60.355586 94.388412,62.151859 95.448889,63.666382 C 98.004918,67.316779 99.771164,68.913112 104.49778,73.639731 C 101.67281,67.581559 100.79603,65.361215 98.24,61.710828 C 97.378361,60.480276 96.25497,59.424714 95.324444,59.453044 z M 160.67556,59.453044 C 159.74502,59.424714 158.62164,60.480276 157.76,61.710828 C 155.20397,65.361215 154.32719,67.581559 151.50222,73.639731 C 156.22884,68.913112 157.99509,67.316779 160.55111,63.666382 C 161.61159,62.151859 162.28968,60.355586 161.28,59.648594 C 161.09069,59.516034 160.89029,59.459584 160.67556,59.453044 z M 91.288889,62.47527 C 91.075538,62.5005 90.879266,62.59338 90.702222,62.74194 C 89.757998,63.534232 90.580446,65.254495 91.768889,66.670837 C 94.633335,70.084554 96.550531,71.511937 101.67111,75.808625 C 98.328883,70.019714 97.246674,67.88011 94.382222,64.466383 C 93.416613,63.315611 92.213407,62.365939 91.288889,62.47527 z M 164.49778,62.47527 C 163.60734,62.52005 162.50911,63.404131 161.61778,64.466383 C 158.75332,67.88011 157.67111,70.019714 154.32889,75.808625 C 159.44946,71.511937 161.36666,70.084564 164.23111,66.670837 C 165.41956,65.254495 166.242,63.534232 165.29778,62.74194 C 165.06172,62.54386 164.79459,62.46034 164.49778,62.47527 z M 87.751111,65.817496 C 87.454128,65.828496 87.186785,65.937386 86.968889,66.155277 C 86.097317,67.026858 87.06597,68.670141 88.373333,69.977504 C 91.524403,73.12859 93.564422,74.392362 99.04,78.226409 C 95.205956,72.750819 93.942187,70.710805 90.791111,67.559719 C 89.810591,66.579197 88.642065,65.784496 87.751111,65.817496 z M 168.24889,65.817496 C 167.35793,65.784496 166.18941,66.579197 165.20889,67.559719 C 162.05782,70.710805 160.79404,72.750819 156.96,78.226409 C 162.43557,74.392362 164.47559,73.12859 167.62667,69.977504 C 168.93404,68.670141 169.90268,67.026848 169.03111,66.155277 C 168.81322,65.937386 168.54587,65.828496 168.24889,65.817496 z M 84.533333,69.479723 C 84.141983,69.472103 83.803147,69.593543 83.555556,69.888614 C 82.763264,70.832835 83.863671,72.380178 85.28,73.56862 C 88.69372,76.433086 90.833323,77.515298 96.622222,80.857524 C 92.325541,75.736935 90.898165,73.819741 87.484444,70.955286 C 86.510717,70.138234 85.394301,69.496493 84.533333,69.479723 z M 171.46667,69.479723 C 170.6057,69.496493 169.48928,70.138224 168.51556,70.955286 C 165.10184,73.819741 163.67446,75.736935 159.37778,80.857524 C 165.16668,77.515298 167.30628,76.433086 170.72,73.56862 C 172.13633,72.380178 173.23674,70.832835 172.44444,69.888614 C 172.19685,69.593543 171.85802,69.472103 171.46667,69.479723 z M 81.404444,73.40862 C 81.013919,73.43514 80.683156,73.59088 80.462222,73.906401 C 79.755241,74.916083 81.009926,76.365926 82.524444,77.426408 C 86.174828,79.982442 88.395167,80.859224 94.453333,83.684199 C 89.726714,78.957571 88.130384,77.191317 84.48,74.635292 C 83.438763,73.906211 82.263592,73.35028 81.404444,73.40862 z M 174.34667,73.40862 C 173.51758,73.45224 172.46657,73.972491 171.52,74.635292 C 167.86962,77.191317 166.27328,78.957571 161.54667,83.684199 C 167.60483,80.859224 169.82517,79.982442 173.47556,77.426408 C 174.99007,76.365926 176.24476,74.916083 175.53778,73.906401 C 175.27266,73.52777 174.84412,73.38245 174.34667,73.40862 z M 78.88,77.586408 C 78.38216,77.603698 77.973333,77.772778 77.742222,78.173079 C 77.125928,79.240531 78.487706,80.573084 80.088889,81.497525 C 83.948157,83.72568 86.252009,84.420211 92.533333,86.706425 C 87.412747,82.409737 85.654818,80.774564 81.795556,78.54641 C 80.794817,77.968629 79.709736,77.557598 78.88,77.586408 z M 177.12,77.586408 C 176.29026,77.557598 175.20518,77.968629 174.20444,78.54641 C 170.34518,80.774564 168.58725,82.409737 163.46667,86.706425 C 169.74799,84.420211 172.05184,83.72568 175.91111,81.497525 C 177.51229,80.573084 178.87407,79.240531 178.25778,78.173079 C 178.02667,77.772778 177.61784,77.603698 177.12,77.586408 z M 77.013333,81.959746 C 76.269756,81.913786 75.673793,82.112306 75.413333,82.670868 C 74.892413,83.78797 76.368782,84.982832 78.044444,85.764203 C 82.083226,87.647517 84.423322,88.140808 90.88,89.870881 C 85.404427,86.036824 83.52322,84.554181 79.484444,82.670868 C 78.646613,82.280177 77.756911,82.005716 77.013333,81.959746 z M 178.98667,81.959746 C 178.24309,82.005716 177.35339,82.280177 176.51556,82.670868 C 172.47679,84.554181 170.59558,86.036824 165.12,89.870881 C 171.57667,88.140808 173.91678,87.647517 177.95556,85.764203 C 179.63122,84.982832 181.10758,83.78797 180.58667,82.670868 C 180.32621,82.112306 179.73024,81.913786 178.98667,81.959746 z M 75.004444,86.493095 C 74.259689,86.512115 73.68634,86.767295 73.475556,87.346426 C 73.053986,88.504688 74.618169,89.576291 76.355556,90.208652 C 80.543107,91.732795 82.928219,92.016805 89.511111,93.177547 C 83.722212,89.835321 81.716434,88.532799 77.528889,87.008646 C 76.660196,86.692465 75.7492,86.474075 75.004444,86.493095 z M 180.99556,86.493095 C 180.2508,86.474075 179.3398,86.692465 178.47111,87.008646 C 174.28357,88.532799 172.27779,89.835321 166.48889,93.177547 C 173.07178,92.016805 175.4569,91.732805 179.64444,90.208652 C 181.38183,89.576291 182.94601,88.504688 182.52444,87.346426 C 182.31366,86.767295 181.74031,86.512115 180.99556,86.493095 z M 73.991111,91.168653 C 72.967908,91.150433 72.146057,91.420094 71.946667,92.164215 C 71.627651,93.354808 73.289665,94.299019 75.075556,94.77755 C 75.329269,94.84553 75.562758,94.89451 75.804444,94.955331 L 84.942222,94.955331 C 81.372712,93.284427 79.305722,92.366176 75.964444,91.470884 C 75.294731,91.291434 74.605033,91.179594 73.991111,91.168653 z M 182.00889,91.168653 C 181.39497,91.179594 180.70526,91.291434 180.03556,91.470884 C 176.69428,92.366176 174.62729,93.284427 171.05778,94.955331 L 180.19556,94.955331 C 180.43724,94.89451 180.67073,94.84553 180.92444,94.77755 C 182.71033,94.299019 184.37235,93.354808 184.05333,92.164215 C 183.85395,91.420094 183.03209,91.150433 182.00889,91.168653 z" id="path4904" style="fill:#ce1126;fill-opacity:1;fill-rule:evenodd;stroke:none;stroke-width:0.25pt;stroke-linecap:butt;stroke-linejoin:miter;stroke-opacity:1"/>
</svg>

<svg xmlns="http://www.w3.org/2000/svg" viewBox="0 0 256 256"><path d="m0 42.33h256v85.33h-256z"/><path fill="#339e35" d="m0 127.67h256v85.33h-256z"/><g fill="#ce1126"><path d="m0 99.22h256v56.889h-256z"/><path d="m128 70.49c-15.977 0-29.558 10.21-34.596 24.462h69.19c-5.04-14.252-18.619-24.462-34.596-24.462"/><path d="m128 49.16c-1.233 0-1.707 1.849-1.707 3.698 0 4.456.546 6.786 1.707 13.369 1.161-6.583 1.707-8.913 1.707-13.369 0-1.849-.474-3.698-1.707-3.698m-5.05.213c-1.228.107-1.548 1.998-1.387 3.84.388 4.439 1.132 6.717 2.862 13.173.583-6.659.922-9.04.533-13.476-.161-1.842-.781-3.645-2.01-3.538m10.1 0c-1.228-.107-1.848 1.696-2.01 3.538-.388 4.439-.049 6.817.533 13.476 1.73-6.457 2.474-8.734 2.862-13.173.161-1.842-.159-3.733-1.387-3.84m-14.898.658c-.073-.0001-.155.004-.231.018-1.214.214-1.352 2.108-1.031 3.929.774 4.389 1.714 6.59 4 12.871 0-6.684.134-9.07-.64-13.458-.301-1.707-1.01-3.339-2.098-3.36m19.698 0c-1.088.021-1.797 1.653-2.098 3.36-.774 4.389-.64 6.773-.64 13.458 2.286-6.281 3.226-8.483 4-12.871.321-1.821.183-3.715-1.031-3.929-.076-.013-.159-.019-.231-.018m-24.64 1.067c-.072.005-.157.016-.231.036-1.191.319-1.172 2.232-.693 4.02 1.153 4.304 2.295 6.422 5.12 12.48-.583-6.659-.66-9.06-1.813-13.369-.449-1.674-1.297-3.238-2.382-3.164m29.582 0c-1.086-.074-1.934 1.49-2.382 3.164-1.153 4.304-1.231 6.71-1.813 13.369 2.825-6.06 3.967-8.176 5.12-12.48.479-1.786.497-3.699-.693-4.02-.074-.02-.159-.031-.231-.036m-34.2 1.493c-.142-.006-.282.018-.427.071-1.158.422-.97 2.316-.338 4.053 1.524 4.188 2.827 6.193 6.169 11.982-1.161-6.583-1.445-8.968-2.969-13.156-.553-1.52-1.445-2.908-2.436-2.951m38.827 0c-.991.043-1.882 1.431-2.436 2.951-1.524 4.188-1.808 6.573-2.969 13.156 3.342-5.789 4.645-7.795 6.169-11.982.632-1.737.82-3.632-.338-4.053-.145-.053-.285-.077-.427-.071m-43.52 1.902c-.142.006-.269.042-.409.107-1.117.521-.781 2.395 0 4.071 1.883 4.04 3.366 5.92 7.2 11.396-1.73-6.457-2.223-8.797-4.107-12.836-.684-1.466-1.694-2.781-2.684-2.738m48.21 0c-.991-.044-2 1.272-2.684 2.738-1.883 4.04-2.377 6.379-4.107 12.836 3.834-5.476 5.317-7.357 7.2-11.396.781-1.676 1.117-3.55 0-4.071-.14-.065-.267-.1-.409-.107m-52.711 2.293c-.14.019-.275.065-.409.142-1.067.616-.551 2.452.373 4.053 2.228 3.859 3.863 5.617 8.16 10.738-2.286-6.281-2.981-8.585-5.209-12.444-.809-1.401-1.932-2.619-2.916-2.489m56.996 0c-.929.053-1.951 1.188-2.702 2.489-2.228 3.859-2.923 6.163-5.209 12.444 4.297-5.121 5.932-6.879 8.16-10.738.924-1.601 1.441-3.437.373-4.053-.2-.116-.408-.154-.622-.142m-61.07 2.667c-.215.007-.415.063-.604.196-1.01.707-.332 2.503.729 4.02 2.556 3.65 4.322 5.247 9.05 9.973-2.825-6.06-3.702-8.279-6.258-11.929-.862-1.231-1.985-2.286-2.916-2.258m65.35 0c-.931-.028-2.054 1.027-2.916 2.258-2.556 3.65-3.433 5.871-6.258 11.929 4.727-4.727 6.493-6.323 9.05-9.973 1.06-1.515 1.739-3.311.729-4.02-.189-.133-.39-.189-.604-.196m-69.39 3.02c-.213.025-.41.118-.587.267-.944.792-.122 2.513 1.067 3.929 2.864 3.414 4.782 4.841 9.902 9.138-3.342-5.789-4.424-7.929-7.289-11.342-.966-1.151-2.169-2.1-3.093-1.991m73.21 0c-.89.045-1.989.929-2.88 1.991-2.864 3.414-3.947 5.553-7.289 11.342 5.121-4.297 7.04-5.724 9.902-9.138 1.188-1.416 2.01-3.137 1.067-3.929-.236-.198-.503-.282-.8-.267m-76.75 3.342c-.297.011-.564.12-.782.338-.872.872.097 2.515 1.404 3.822 3.151 3.151 5.191 4.415 10.667 8.249-3.834-5.476-5.098-7.516-8.249-10.667-.981-.981-2.149-1.775-3.04-1.742m80.5 0c-.891-.033-2.059.762-3.04 1.742-3.151 3.151-4.415 5.191-8.249 10.667 5.476-3.834 7.516-5.098 10.667-8.249 1.307-1.307 2.276-2.951 1.404-3.822-.218-.218-.485-.327-.782-.338m-83.72 3.662c-.391-.008-.73.114-.978.409-.792.944.308 2.492 1.724 3.68 3.414 2.864 5.553 3.947 11.342 7.289-4.297-5.121-5.724-7.04-9.138-9.902-.974-.817-2.09-1.459-2.951-1.476m86.93 0c-.861.017-1.977.659-2.951 1.476-3.414 2.864-4.841 4.782-9.138 9.902 5.789-3.342 7.928-4.424 11.342-7.289 1.416-1.188 2.517-2.736 1.724-3.68-.248-.295-.586-.417-.978-.409m-90.06 3.929c-.391.027-.721.182-.942.498-.707 1.01.548 2.46 2.062 3.52 3.65 2.556 5.871 3.433 11.929 6.258-4.727-4.727-6.323-6.493-9.973-9.05-1.041-.729-2.216-1.285-3.076-1.227m92.94 0c-.829.044-1.88.564-2.827 1.227-3.65 2.556-5.247 4.322-9.973 9.05 6.06-2.825 8.279-3.702 11.929-6.258 1.515-1.06 2.769-2.51 2.062-3.52-.265-.379-.694-.524-1.191-.498m-95.47 4.178c-.498.017-.907.186-1.138.587-.616 1.067.745 2.4 2.347 3.324 3.859 2.228 6.163 2.923 12.444 5.209-5.121-4.297-6.879-5.932-10.738-8.16-1-.578-2.086-.989-2.916-.96m98.24 0c-.83-.029-1.915.382-2.916.96-3.859 2.228-5.617 3.863-10.738 8.16 6.281-2.286 8.585-2.981 12.444-5.209 1.601-.924 2.963-2.257 2.347-3.324-.231-.4-.64-.569-1.138-.587m-100.11 4.373c-.744-.046-1.34.153-1.6.711-.521 1.117.955 2.312 2.631 3.093 4.04 1.883 6.379 2.377 12.836 4.107-5.476-3.834-7.357-5.317-11.396-7.2-.838-.391-1.728-.665-2.471-.711m101.97 0c-.744.046-1.633.32-2.471.711-4.04 1.883-5.92 3.366-11.396 7.2 6.457-1.73 8.797-2.223 12.836-4.107 1.676-.781 3.152-1.976 2.631-3.093-.26-.559-.856-.757-1.6-.711m-103.98 4.533c-.745.019-1.318.274-1.529.853-.422 1.158 1.143 2.23 2.88 2.862 4.188 1.524 6.573 1.808 13.156 2.969-5.789-3.342-7.795-4.645-11.982-6.169-.869-.316-1.78-.535-2.524-.516m105.99 0c-.745-.019-1.656.199-2.524.516-4.188 1.524-6.193 2.827-11.982 6.169 6.583-1.161 8.968-1.445 13.156-2.969 1.737-.632 3.302-1.704 2.88-2.862-.211-.579-.784-.834-1.529-.853m-107 4.676c-1.023-.018-1.845.251-2.044.996-.319 1.191 1.343 2.135 3.129 2.613.254.068.487.117.729.178h9.138c-3.57-1.671-5.636-2.589-8.978-3.484-.67-.179-1.359-.291-1.973-.302m108.02 0c-.614.011-1.304.123-1.973.302-3.341.895-5.408 1.814-8.978 3.484h9.138c.242-.061.475-.11.729-.178 1.786-.479 3.448-1.423 3.129-2.613-.199-.744-1.021-1.014-2.044-.996" fill-rule="evenodd"/></g></svg>
